resources/images/TargetIcon.svg

<svg xmlns="http://www.w3.org/2000/svg" width="2486" height="2486" shape-rendering="geometricPrecision" image-rendering="optimizeQuality" fill-rule="evenodd" fill="#ec1b2d" xmlns:v="https://vecta.io/nano"><path d="M1211.5-.5h62c315.02 11.886 588.02 123.719 819 335.5 197.61 187.982 322.11 416.815 373.5 686.5 10.93 62.36 17.43 125.03 19.5 188v66c-12.32 314.82-124.49 587.49-336.5 818-221.74 231.43-493.24 360.93-814.5 388.5l-63 3.5h-58c-304.26-10.39-570.26-115.22-798-314.5C184.306 1961.15 48.4731 1700.32 8 1388.5c-4.1911-37.39-7.024431-74.72-8.5-112v-68c13.7705-333.602 137.771-618.102 372-853.5C605.561 130.536 885.561 12.0356 1211.5-.5zm16 418c245.21.401 452.04 88.734 620.5 265 163.78 182.664 235.44 397 215 643-24.79 216.1-117.96 395.94-279.5 539.5-155.3 132.23-335.63 199.73-541 202.5-214.97-3.12-401.636-76.28-560-219.5-172.345-164.27-260.678-366.1-265-605.5 4.549-245.2 96.549-450.367 276-615.5 152.492-133.25 330.49-203.083 534-209.5zm-6 388c151.75-3.03 273.92 54.97 366.5 174 79.19 112.65 101.86 235.98 68 370-33.19 112.83-100.35 199-201.5 258.5-102.57 55.95-210.57 69.62-324 41-125.93-36.94-218.101-114.11-276.5-231.5-47.99-106.87-53.324-215.87-16-327 41.271-110.941 115.105-192.441 221.5-244.5 51.52-23.866 105.52-37.366 162-40.5z" opacity=".998"/></svg>

<?xml version="1.0" encoding="UTF-8"?>
<!DOCTYPE svg PUBLIC "-//W3C//DTD SVG 1.1//EN" "http://www.w3.org/Graphics/SVG/1.1/DTD/svg11.dtd">
<svg xmlns="http://www.w3.org/2000/svg" version="1.1" width="2486px" height="2486px" style="shape-rendering:geometricPrecision; text-rendering:geometricPrecision; image-rendering:optimizeQuality; fill-rule:evenodd; clip-rule:evenodd" xmlns:xlink="http://www.w3.org/1999/xlink">
<g><path style="opacity:0.998" fill="#ec1b2d" d="M 1211.5,-0.5 C 1232.17,-0.5 1252.83,-0.5 1273.5,-0.5C 1588.52,11.386 1861.52,123.219 2092.5,335C 2290.11,522.982 2414.61,751.815 2466,1021.5C 2476.93,1083.86 2483.43,1146.53 2485.5,1209.5C 2485.5,1231.5 2485.5,1253.5 2485.5,1275.5C 2473.18,1590.32 2361.01,1862.99 2149,2093.5C 1927.26,2324.93 1655.76,2454.43 1334.5,2482C 1313.35,2483.33 1292.35,2484.5 1271.5,2485.5C 1252.17,2485.5 1232.83,2485.5 1213.5,2485.5C 909.24,2475.11 643.24,2370.28 415.5,2171C 184.306,1961.15 48.4731,1700.32 8,1388.5C 3.8089,1351.11 0.975569,1313.78 -0.5,1276.5C -0.5,1253.83 -0.5,1231.17 -0.5,1208.5C 13.2705,874.898 137.271,590.398 371.5,355C 605.561,130.536 885.561,12.0356 1211.5,-0.5 Z M 1227.5,417.5 C 1472.71,417.901 1679.54,506.234 1848,682.5C 2011.78,865.164 2083.44,1079.5 2063,1325.5C 2038.21,1541.6 1945.04,1721.44 1783.5,1865C 1628.2,1997.23 1447.87,2064.73 1242.5,2067.5C 1027.53,2064.38 840.864,1991.22 682.5,1848C 510.155,1683.73 421.822,1481.9 417.5,1242.5C 422.049,997.3 514.049,792.133 693.5,627C 845.992,493.75 1023.99,423.917 1227.5,417.5 Z"/></g>
<g><path style="opacity:0.998" fill="#ec1b2d" d="M 1221.5,805.5 C 1373.25,802.47 1495.42,860.47 1588,979.5C 1667.19,1092.15 1689.86,1215.48 1656,1349.5C 1622.81,1462.33 1555.65,1548.5 1454.5,1608C 1351.93,1663.95 1243.93,1677.62 1130.5,1649C 1004.57,1612.06 912.399,1534.89 854,1417.5C 806.01,1310.63 800.676,1201.63 838,1090.5C 879.271,979.559 953.105,898.059 1059.5,846C 1111.02,822.134 1165.02,808.634 1221.5,805.5 Z"/></g>
</svg>
